X:599
T:I'm Asleep and Don't Awaken Me.
T:ta me mo .codla.d 's na duisgui.g me.
Z:Tempo: moderate
Z:O'Neill's 599
Z:abc by John Walsh (walsh@math.ubc.ca)
M:3/4
Q:110
K:F
FD|CD .F2.F z|F4 F2|G2F/4G/4A3/2 A/4G/4F3/2|
D4 C2|D2 F2 .F2|A2 c2 d/4c/4A3/2|TG3F A/4G/4F3/2|F4:|
cd|de4 ef/2e/2|cd4 de/2d/2|Bc4 de|d2 c2. A2|
"~natural"c2 d2 f2|Tf4 dc|.A2 .G2 .F2|FG DF C2|
de4 fe|cd4 cA|cd fd cA|GF DF C2|
"~#"D2 F2 f2|[d2D2] cA GF|TG4 F2|F4||
F/4G/4A3/2|B2 cBAG|A2 BAGF|GA cG AF|
TD4 C2|.D2 .F2 .f2|d2 cA GF|TG4 F2|F4:|
CD|[E4C4] [EC] z|[D4B,4] [DB,] z|C4 C z|C2 A,2 C2|
"~natural" C2 D2 F2|"~"F3G F/4G/4A3/2|AG F/4G/4A3/ A/4G/4F3/2|D4 cd|
[e4c4] [e2c2]|[d4B4] cA|cd fd cA|GF DF C2|
"~"D2 F2 f2|d2 cA "pp"GF|TG3 F A/4G/4F3/2|F4||
